Adwaita++/apps/scalable/dropbox.svg

<svg height="128" viewBox="0 0 128 128" width="128" xmlns="http://www.w3.org/2000/svg">
  <path d="m64 26.9375v44.210938l2.529297.439453 33.130859-19.945313-.013672-8.703125-27.865234-18.261719c-1.868274.482306-4.048678 1.148896-7.78125 2.259766z" fill="#0660cd" fill-opacity=".614286"/>
  <path d="m64 26.9375c-4.375224 1.302133-9.121094 2.648437-9.121094 2.648438l-26.826172 12.263671.570313 9.792969 30.855469 18.71875 4.521484.78711z" fill="#3584e4" fill-opacity=".615686"/>
  <path d="m99.646484 42.939453-.005859-3.849609s-24.374265-15.176732-25.753906-15.023438c-.15282.01698-1.599955.480827-2.105469.611328z" fill="#3584e4"/>
  <path d="m39.377358 8.907542-35.377358 20.224528v2.7l24.622642 19.811321 35.377358-22.075471v-2.7zm-35.377358 61.981132 35.377358 23.207551 24.622642-20.660381v-2.7l-35.377358-19.092453-24.622642 16.545283zm60 2.54717 24.90566 20.660381 35.09434-22.924532v-2.7l-24.339623-16.828302-35.660377 19.092453zm60-41.603774v-2.7l-35.09434-20.224528-24.90566 17.960378v2.7l35.660377 22.075471zm-59.716981 46.132076-24.905661 20.660379-10.377358-6.994177v7.870321l35.283019 21.199331 35.716981-21.389022v-4.916562l-11.09434 4.230109z" fill="#0f1a28" opacity=".2"/>
  <path d="m39.377358 6.2075422-35.377358 22.9245278 24.622642 19.811321 35.377358-22.075471zm-35.377358 61.9811318 35.377358 23.207551 24.622642-20.660381-35.377358-21.792453zm60 2.54717 24.90566 20.660381 35.09434-22.924532-24.339623-19.528302zm60-41.603774-35.09434-22.9245278-24.90566 20.6603778 35.660377 22.075471z" fill="#3584e4"/>
  <path d="m64 70.735844c-42.666667 38.176106-21.333333 19.088052 0 0zm0 0-24.622642 20.660381-10.377358-6.839389v12.443164l35.283019 21 35.716981-21v-12.851497l-11.09434 7.247722z" fill="#1c71d8"/>
  <path d="m63.999816 117.83203.283203.16797 35.716797-20.999998v-12.851563l-11.09375 7.248047-24.90625-20.660156z" fill="#0660cd"/>
  <path d="m29 87.257094 10.377358 6.839131 24.622642-20.660381v-2.7l-24.622642 20.660381-10.377358-6.839389zm35-13.82125 24.90566 20.660381 11.09434-7.239938v-2.707784l-11.09434 7.247722-24.90566-20.660381z" fill="#0f1a28" opacity=".2"/>
</svg>

<svg xmlns="http://www.w3.org/2000/svg" width="128" height="128" version="1.1" viewBox="0 0 128 128">
 <path style="fill:#0660cd;fill-opacity:0.61428571" d="M 64 26.9375 L 64 71.148438 L 66.529297 71.587891 L 99.660156 51.642578 L 99.646484 42.939453 L 71.78125 24.677734 C 69.912976 25.16004 67.732572 25.82663 64 26.9375 z"/>
 <path style="fill:#3584e4;fill-opacity:0.6156863" d="M 64 26.9375 C 59.624776 28.239633 54.878906 29.585937 54.878906 29.585938 L 28.052734 41.849609 L 28.623047 51.642578 L 59.478516 70.361328 L 64 71.148438 L 64 26.9375 z"/>
 <path style="fill:#3584e4" d="M 99.646484 42.939453 L 99.640625 39.089844 C 99.640625 39.089844 75.26636 23.913112 73.886719 24.066406 C 73.733899 24.083386 72.286764 24.547233 71.78125 24.677734 L 99.646484 42.939453 z"/>
 <path style="opacity:0.2;fill:#0f1a28" d="M 39.377358,8.907542 4,29.13207 v 2.7 L 28.622642,51.643391 64,29.56792 v -2.7 z M 4,70.888674 39.377358,94.096225 64,73.435844 v -2.7 L 28.622642,51.643391 4,68.188674 Z M 64,73.435844 88.90566,94.096225 124,71.171693 v -2.7 L 99.660377,51.643391 64,70.735844 Z M 124,31.83207 v -2.7 L 88.90566,8.907542 64,26.86792 v 2.7 L 99.660377,51.643391 Z M 64.283019,77.964146 39.377358,98.624525 29,91.630348 v 7.870321 L 64.283019,120.7 100,99.310978 v -4.916562 l -11.09434,4.230109 z"/>
 <path d="M 39.377358,6.2075422 4,29.13207 28.622642,48.943391 64,26.86792 Z M 4,68.188674 39.377358,91.396225 64,70.735844 28.622642,48.943391 Z M 64,70.735844 88.90566,91.396225 124,68.471693 99.660377,48.943391 Z M 124,29.13207 88.90566,6.2075422 64,26.86792 99.660377,48.943391 Z" style="fill:#3584e4"/>
 <path style="fill:#1c71d8" d="m 64,70.735844 c -42.666667,38.176106 -21.333333,19.088052 0,0 z m 0,0 L 39.377358,91.396225 29,84.556836 V 97 L 64.283019,118 100,97 V 84.148503 l -11.09434,7.247722 z"/>
 <path style="fill:#0660cd" d="M 63.999816,117.83203 64.283019,118 99.999816,97.000002 V 84.148439 L 88.906066,91.396486 63.999816,70.73633 Z"/>
 <path d="M 29,87.257094 39.377358,94.096225 64,73.435844 v -2.7 L 39.377358,91.396225 29,84.556836 Z M 64,73.435844 88.90566,94.096225 100,86.856287 V 84.148503 L 88.90566,91.396225 64,70.735844 Z" style="opacity:0.2;fill:#0f1a28"/>
</svg>
